X: 24733
T: Mad Practicing
R: jig
M: 6/8
K: Bminor
|:fga gfd|Bdb agf|fBf gBg|fBe {f}edB|
fga gfd|Bdb agf|fBf ~g3|fed e3:|
K: Dmix
FGA cAd-|dAG F3|FGA cAA|dAA efd|
FGA cAd-|dAG F3|AGA cAc|dcd efd|
FGA cAd-|dAG F3|FGA cAA|dAA efd|
FGA cAd-|dAG FAG|BAc Bdc|edf egf-||

